flaticon/hand-gestures/pointing-6.svg

<svg xmlns="http://www.w3.org/2000/svg" width="32" height="32" viewBox="0 0 24 24">
    <path d="M9.28125 12.398438C9.640625 11.480469 9.238281 10.238281 8.398438 9.601562L13.601562 9.601562C14.359375 9.601562 15 8.960938 15 8.199219 15 7.441406 14.359375 6.800781 13.601562 6.800781L12.039062 6.800781C12.160156 6.601562 12.199219 6.398438 12.199219 6.199219 12.199219 5.480469 11.601562 4.839844 10.839844 4.800781 10.960938 4.640625 11 4.441406 11 4.199219 11 3.519531 10.558594 3 9.921875 2.839844 9.960938 2.679688 10 2.558594 10 2.398438 10 .878906 8.199219.800781 4.441406.800781 3.933594.800781 3.507812.921875 3.171875 1.078125 3.140625 1.089844 3.109375 1.101562 3.078125 1.121094 3.0625 1.128906 3.042969 1.140625 3.027344 1.152344 2.800781 1.277344 2.628906 1.410156 2.519531 1.519531 2.480469 1.519531 2.359375 1.640625 1.960938 1.71875.761719 2 0 2.878906 0 4L0 6.480469C0 7.921875 1 9.441406 2.519531 9.441406L3.121094 9.441406C3.960938 10.160156 5 10.839844 5.078125 10.878906 6.078125 11.441406 7.121094 12.359375 7.640625 12.800781 8 13.121094 8.078125 13.199219 8.238281 13.199219L8.28125 13.199219C8.441406 13.199219 8.800781 13.199219 9.078125 12.761719 9.160156 12.679688 9.238281 12.558594 9.28125 12.398438zM8.519531 12.121094C8.480469 12.160156 8.441406 12.238281 8.398438 12.320312 8.398438 12.359375 8.359375 12.398438 8.359375 12.398438 8.320312 12.320312 8.238281 12.28125 8.160156 12.199219 7.640625 11.761719 6.558594 10.800781 5.480469 10.199219 5.480469 10.199219 4.5 9.589844 3.75 8.933594 3.730469 8.898438 3.707031 8.867188 3.679688 8.839844 3.558594 8.761719 3.480469 8.679688 3.398438 8.601562 3.121094 8.359375 2.921875 8.199219 2.71875 7.800781 2.640625 7.601562 2.398438 7.558594 2.199219 7.640625 2 7.761719 1.921875 8 2.039062 8.160156 2.140625 8.347656 2.242188 8.5 2.34375 8.628906 1.4375 8.5.800781 7.421875.800781 6.480469L.800781 4C.800781 3.300781 1.289062 2.71875 2.046875 2.535156 2.03125 2.582031 2.015625 2.632812 2 2.679688 1.960938 2.921875 2.078125 3.121094 2.28125 3.199219 2.320312 3.199219 2.359375 3.199219 2.398438 3.199219 2.558594 3.199219 2.761719 3.078125 2.800781 2.921875 2.921875 2.359375 3.238281 1.960938 3.480469 1.839844 3.503906 1.824219 3.53125 1.808594 3.550781 1.789062 3.789062 1.679688 4.082031 1.601562 4.441406 1.601562 7.800781 1.601562 9.199219 1.71875 9.199219 2.398438 9.199219 2.480469 9.199219 2.800781 8.800781 2.800781L6.800781 2.800781C6.558594 2.800781 6.398438 2.960938 6.398438 3.199219 6.398438 3.441406 6.558594 3.601562 6.800781 3.601562L9.601562 3.601562C9.921875 3.601562 10.238281 3.800781 10.238281 4.199219 10.238281 4.558594 9.800781 4.800781 9.601562 4.800781L7.199219 4.800781C6.960938 4.800781 6.800781 4.960938 6.800781 5.199219 6.800781 5.441406 6.960938 5.601562 7.199219 5.601562L10.800781 5.601562C11.160156 5.601562 11.441406 5.878906 11.441406 6.199219 11.441406 6.519531 11.121094 6.800781 10.800781 6.800781L6.800781 6.800781C6.558594 6.800781 6.398438 6.960938 6.398438 7.199219 6.398438 7.441406 6.558594 7.601562 6.800781 7.601562L13.601562 7.601562C13.921875 7.601562 14.199219 7.878906 14.199219 8.199219 14.199219 8.519531 13.921875 8.800781 13.601562 8.800781L7.359375 8.800781 7.078125 8.519531C6.921875 8.359375 6.679688 8.359375 6.519531 8.519531 6.359375 8.679688 6.359375 8.917969 6.519531 9.078125L6.921875 9.480469C6.925781 9.484375 6.929688 9.492188 6.9375 9.496094 6.945312 9.503906 6.953125 9.511719 6.960938 9.519531L7.679688 10.078125C7.679688 10.121094 7.71875 10.121094 7.71875 10.121094 8.441406 10.519531 8.761719 11.519531 8.519531 12.121094zM21.28125 14.558594L20.679688 14.558594 20.640625 14.519531C20.613281 14.492188 20.585938 14.472656 20.554688 14.453125 19.738281 13.773438 18.796875 13.15625 18.71875 13.121094 17.71875 12.558594 16.679688 11.640625 16.160156 11.199219 15.800781 10.839844 15.71875 10.761719 15.519531 10.800781 15.398438 10.800781 15 10.800781 14.71875 11.238281 14.640625 11.320312 14.558594 11.441406 14.519531 11.601562 14.238281 12.320312 14.519531 13.28125 15.28125 14.160156 15.320312 14.238281 15.398438 14.320312 15.480469 14.398438L10.398438 14.398438C9.601562 14.398438 8.960938 15 8.960938 15.761719 8.960938 16.558594 9.601562 17.199219 10.398438 17.199219L11.921875 17.199219C11.839844 17.359375 11.800781 17.558594 11.800781 17.800781 11.800781 18.558594 12.398438 19.160156 13.160156 19.199219 13.039062 19.398438 13 19.601562 13 19.839844 13 20.441406 13.359375 20.921875 13.921875 21.121094 13.839844 21.28125 13.800781 21.441406 13.800781 21.601562 13.800781 23.121094 15.558594 23.199219 19.199219 23.199219 20.164062 23.199219 20.902344 22.792969 21.242188 22.511719 21.253906 22.503906 21.265625 22.492188 21.28125 22.480469 21.320312 22.480469 21.441406 22.359375 21.839844 22.28125 22.878906 22.039062 24 21.238281 24 20L24 17.28125C24 15.800781 22.800781 14.558594 21.28125 14.558594zM23.199219 20C23.199219 20.675781 22.566406 21.195312 21.917969 21.414062 21.917969 21.410156 21.917969 21.40625 21.921875 21.398438 22 21.199219 21.839844 20.960938 21.640625 20.921875 21.441406 20.839844 21.199219 21 21.160156 21.199219 21.039062 21.679688 21.039062 21.679688 20.800781 21.839844 20.78125 21.855469 20.765625 21.871094 20.75 21.886719 20.574219 22.015625 19.945312 22.398438 19.199219 22.398438 15.558594 22.398438 14.601562 22.238281 14.601562 21.601562 14.601562 21.480469 14.839844 21.199219 15.199219 21.199219L16.800781 21.199219C17.039062 21.199219 17.199219 21.039062 17.199219 20.800781 17.199219 20.558594 17.039062 20.398438 16.800781 20.398438L14.398438 20.398438C14.121094 20.398438 13.800781 20.199219 13.800781 19.839844 13.800781 19.441406 14.238281 19.199219 14.398438 19.199219L16.398438 19.199219C16.640625 19.199219 16.800781 19.039062 16.800781 18.800781 16.800781 18.558594 16.640625 18.398438 16.398438 18.398438L13.199219 18.398438C12.921875 18.398438 12.601562 18.199219 12.601562 17.800781 12.601562 17.398438 12.878906 17.199219 13.199219 17.199219L16.800781 17.199219C17.039062 17.199219 17.199219 17.039062 17.199219 16.800781 17.199219 16.558594 17.039062 16.398438 16.800781 16.398438L10.398438 16.398438C10.078125 16.398438 9.761719 16.199219 9.761719 15.761719 9.761719 15.441406 10.078125 15.199219 10.398438 15.199219L16.71875 15.199219 17.441406 15.558594C17.480469 15.601562 17.519531 15.601562 17.601562 15.601562 17.761719 15.601562 17.878906 15.519531 17.960938 15.398438 18.078125 15.199219 18 14.960938 17.800781 14.878906L17 14.480469 16.359375 14.082031C16.160156 13.960938 16 13.839844 15.878906 13.679688 15.480469 13.199219 15.078125 12.441406 15.28125 11.921875 15.320312 11.878906 15.359375 11.800781 15.398438 11.71875 15.398438 11.679688 15.441406 11.640625 15.441406 11.640625 15.480469 11.679688 15.558594 11.71875 15.640625 11.800781 16.160156 12.238281 17.238281 13.199219 18.320312 13.800781 18.320312 13.800781 19.480469 14.519531 20.238281 15.238281 20.261719 15.261719 20.28125 15.28125 20.304688 15.296875 20.65625 15.617188 21.089844 16.085938 21.199219 16.519531 21.28125 16.679688 21.441406 16.800781 21.601562 16.800781 21.640625 16.800781 21.679688 16.800781 21.679688 16.800781 21.878906 16.761719 22.039062 16.519531 21.960938 16.320312 21.859375 15.964844 21.664062 15.644531 21.441406 15.367188 22.410156 15.449219 23.199219 16.257812 23.199219 17.28125zM23.199219 20"/>
</svg>

<svg xmlns="http://www.w3.org/2000/svg" width="32" height="32" viewBox="0 0 24 24">
    <path d="M9.281 12.398c.36-.918-.043-2.16-.883-2.796h5.204c.757 0 1.398-.641 1.398-1.403 0-.758-.64-1.398-1.398-1.398h-1.563c.121-.2.16-.403.16-.602 0-.719-.597-1.36-1.36-1.398.122-.16.161-.36.161-.602 0-.68-.441-1.199-1.078-1.36.039-.16.078-.28.078-.44C10 .878 8.2.8 4.441.8a2.99 2.99 0 0 0-1.27.277c-.03.012-.062.024-.093.043a.357.357 0 0 0-.05.031 2.312 2.312 0 0 0-.508.368c-.04 0-.16.12-.56.199C.763 2 0 2.879 0 4v2.48c0 1.442 1 2.961 2.52 2.961h.601c.84.72 1.879 1.399 1.957 1.438 1 .562 2.043 1.48 2.563 1.922.359.32.437.398.597.398h.043c.16 0 .52 0 .797-.437a.807.807 0 0 0 .203-.364zm-.761-.277c-.04.04-.079.117-.122.2 0 .038-.039.077-.039.077-.039-.078-.12-.117-.199-.199-.52-.437-1.601-1.398-2.68-2 0 0-.98-.61-1.73-1.265a.42.42 0 0 0-.07-.094c-.121-.078-.2-.16-.282-.238-.277-.243-.476-.403-.68-.801-.077-.2-.32-.242-.519-.16-.199.12-.277.359-.16.52.102.187.203.339.305.468C1.438 8.5.8 7.422.8 6.48V4c0-.7.488-1.281 1.246-1.465L2 2.68c-.04.242.078.441.281.52h.117c.16 0 .364-.122.403-.278.12-.563.437-.961.68-1.082.023-.016.05-.031.07-.05.238-.11.531-.188.89-.188 3.36 0 4.758.117 4.758.796 0 .082 0 .403-.398.403h-2c-.242 0-.403.16-.403.398 0 .242.16.403.403.403h2.8c.32 0 .637.199.637.597 0 .36-.437.602-.636.602H7.199c-.238 0-.398.16-.398.398 0 .242.16.403.398.403h3.602c.36 0 .64.277.64.597 0 .32-.32.602-.64.602h-4c-.242 0-.403.16-.403.398 0 .242.16.403.403.403h6.8a.61.61 0 0 1 .598.597c0 .32-.277.602-.597.602H7.359l-.28-.281a.385.385 0 0 0-.56 0 .385.385 0 0 0 0 .558l.403.402c.004.004.008.012.016.016l.023.024.719.558c0 .043.039.043.039.043.722.399 1.043 1.399.8 2zm0 0M21.281 14.559h-.601l-.04-.04a.46.46 0 0 0-.085-.066c-.817-.68-1.758-1.297-1.836-1.332-1-.562-2.04-1.48-2.559-1.922-.36-.36-.441-.437-.64-.398-.122 0-.52 0-.801.437a.804.804 0 0 0-.2.364c-.28.718 0 1.68.762 2.558.04.078.117.16.2.238h-5.083c-.796 0-1.437.602-1.437 1.364 0 .797.64 1.437 1.437 1.437h1.524a1.31 1.31 0 0 0-.121.602c0 .758.597 1.36 1.36 1.398-.122.2-.161.403-.161.64 0 .602.36 1.083.922 1.282-.082.16-.121.32-.121.48 0 1.52 1.758 1.598 5.398 1.598.965 0 1.703-.406 2.043-.687.012-.008.024-.02.04-.032.038 0 .16-.12.558-.199C22.879 22.04 24 21.238 24 20v-2.719c0-1.48-1.2-2.722-2.719-2.722zM23.2 20c0 .676-.633 1.195-1.281 1.414 0-.004 0-.008.004-.016.078-.199-.082-.437-.281-.476-.2-.082-.442.078-.48.277-.122.48-.122.48-.36.64-.02.016-.035.032-.051.048-.176.129-.805.511-1.55.511-3.641 0-4.598-.16-4.598-.796 0-.122.238-.403.597-.403h1.602c.238 0 .398-.16.398-.398 0-.242-.16-.403-.398-.403h-2.403c-.277 0-.597-.199-.597-.558 0-.399.437-.64.597-.64h2c.243 0 .403-.16.403-.4 0-.241-.16-.402-.403-.402H13.2c-.277 0-.597-.199-.597-.597 0-.403.277-.602.597-.602h3.602c.238 0 .398-.16.398-.398 0-.242-.16-.403-.398-.403h-6.403c-.32 0-.636-.199-.636-.636 0-.32.316-.563.636-.563h6.32l.723.36c.04.043.079.043.16.043.16 0 .278-.082.36-.204.117-.199.039-.437-.16-.52L17 14.48l-.64-.398c-.2-.121-.36-.242-.481-.402-.399-.48-.8-1.239-.598-1.758a.932.932 0 0 0 .117-.203c0-.04.043-.078.043-.078.04.039.118.078.2.16.52.437 1.597 1.398 2.68 2 0 0 1.16.719 1.917 1.437.024.024.043.043.067.059.351.32.785.789.894 1.223.082.16.242.28.403.28h.078c.199-.038.36-.28.28-.48a2.76 2.76 0 0 0-.519-.953 1.92 1.92 0 0 1 1.758 1.914zm0 0"/>
</svg>
